X:1
T:Bourrée in E minor
T:J. S. Bach
T:BWV 996
%%score ( 1 2 )
L:1/8
Q:1/4=120
M:4/4
K:G
V:1 treble-8 nm="Guitar" snm="Guit."
V:2 treble-8 
V:1
"^Allegretto" !0!e"^II"!1!f |: !2!g2 !1!f!0!e !4!^d2 !0!e!1!f | %2
 !0!B2"^II" !1!^c!3!^d !4!e2 !4!=d!1!=c | !0!B2 !2!A!0!G !3!F2 !0!G!2!A | %4
 !0!B!2!A!0!G!4!F !2!E2 !0!e"^II"!1!f | !2!g2 !1!f!0!e !4!^d2 !0!e!1!f | %6
 B2"^II" !1!^c!3!^d !4!e2 !4!=d!1!=c | !0!B2 !2!A!0!G !2!F3 !0!G |1 !0!G6 !0!e"^II"!1!f :|2 %9
 G6 !0!B!0!G |: !4!d2 !3!A!1!c !0!B2 !4!g!3!d | !0!e2 !3!B!1!d !3!c2 !3!B!1!A | %12
 !1!^G2 !1!A!3!B !4!c2 !4!B!2!A | !2!A6 !4!d!2!A | !0!B2 !4!g!3!d e2 !3!B!1!d | %15
 !3!c2 !4!a!3!e !3!f2 !3!^c!0!e | %16
 !3!d2"^<font size=\"7.9995\"/><font face=\"Times New Roman\"/>II" !1!^c!4!B"^tr"{!4!B} !2!^A3 !0!B | %17
 !0!B6 !4!b!3!f | !4!^g2 !1!f!0!e !4!a2 !3!e!1!=g | %19
 !1!f2 !0!e!3!d !4!g2"^<font size=\"7.9995\"/><font face=\"Times New Roman\"/>III" !1!d!4!=f | %20
 !4!e2"^<font size=\"7.9995\"/><font face=\"Times New Roman\"/>V" !1!a!1!e !4!!courtesy!^f2 !4!^c!0!e | %21
 !4!^d2 !3!B4 !4!e!3!B | %22
"^<font size=\"7.9995\"/><font face=\"Times New Roman\"/>½ II" !4!!courtesy!=c2 !2!!courtesy!=d!1!A !0!B2 !1!c!0!G | %23
 !1!A2"^<font size=\"7.9995\"/><font face=\"Times New Roman\"/>IV" !1!B!1!F !0!G2 !3!F!1!E | %24
 !1!^D2 !1!E!3!F"^<font size=\"7.9995\"/><font face=\"Times New Roman\"/>II" !4!G2 !3!F!1!E |1 %25
 !1!E6 BG :|2 E6 |] %27
V:2
 !2!G,!1!F, |: !0!E,2 !0!A,2 !1!B,2 !0!A,2 | !2!G,2 !1!F,2 !0!E,2 !2!F,2 | %3
 !3!G,2 !0!A,2 !1!B,2 !0!A,2 | !3!G,2 !1!B,2 !0!E,!1!F,!3!G,!1!F, | !0!E,2 !0!A,2 !1!B,2 !0!A,2 | %6
 !2!G,2 !1!F,2 !0!E,2 !2!F,2 | !3!G,2 !3!C2 !3!D2 D2 |1 !3!!2!!0![G,B,D]6 !2!G,!1!F, :|2 %9
 [G,B,D]6 !3!G,2 |: !2!F,2 !0!D2 !2!G,2 !1!B,2 | !1!C2 !2!^G,2 !0!A,2 !0!D2 | %12
 !2!E2 !0!A,2 !1!E2 !0!E,2 | !0!A,!1!B,!0!A,!3!G, !1!F,2 !0!D2 | !3!G,2 !1!B,2 !1!C2 !2!^G,2 | %15
 !0!A,2 !1!^C2 !0!D2 !1!^A,2 | !1!B,2 !1!E2 !3!F2 !1!F,2 | (!2!B,!1!^A,)!2!B,!4!^C !1!^D2 !2!B,2 | %18
 !1!E2 !0!D2 !2!^C2 !0!A,2 | !0!D2 !2!!courtesy!=C2 !1!B,2 !1!G,2 | !1!C2 !3!B,2 !0!A,2 !2!F,2 | %21
 !1!B,3 !2!C !1!B,!0!A, !2!^G,2 | !0!A,!1!E !3!F2 !0!!courtesy!=G!1!^D !2!E2 | %23
 !4!F!3!^C !3!^D2 !4!E2 !0!A,2 | !2!B,2 !0!A,2 !1!B,4 |1 !0!E,6 G,2 :|2 E,6 |] %27

